.local/share/icons/Gruvbox-Plus-Dark/mimetypes/scalable/application-x-perl.svg

<svg width="256" height="256" fill="none" version="1.1" viewBox="0 0 256 256" xmlns="http://www.w3.org/2000/svg">
  <path d="m55.08 15h100.5l60.4 60.15 2e-3 148.9c0 8.911-7.262 16.13-16.17 16.13h-144.8c-8.91 0-16.08-7.174-16.08-16.08v-193c0-8.91 7.173-16.08 16.08-16.08h1e-4z" fill="#ebdbb2"/>
  <path d="m199.8 240.2c8.911 0 16.17-7.218 16.17-16.13l-1e-3 -37.55h-177v37.59c0 8.91 7.173 16.08 16.08 16.08h144.8z" fill="url(#paint0_linear)" opacity=".2"/>
  <path d="m155.6 22.98h-100.5c-4.504 0-8.105 3.601-8.105 8.105v193c0 4.504 3.601 8.105 8.105 8.105h144.8c4.533 0 8.194-3.674 8.194-8.149v-148.9l-52.42-52.17zm-1e-3 -7.979h-100.5c-8.91 0-16.08 7.173-16.08 16.08v193c0 8.91 7.173 16.08 16.08 16.08h144.8c8.911 0 16.17-7.218 16.17-16.13l-2e-3 -148.9-60.4-60.15z" clip-rule="evenodd" fill="url(#paint1_linear)" fill-rule="evenodd"/>
  <path d="m80.92 226h4.8v-10.6h6.84c6.72 0 9.4-4.72 9.4-8.72 0-4.28-2.44-8.68-9.4-8.68h-11.64v28zm11.88-15.16h-7.08v-8.28h7.08c3.28 0 4.2 2.36 4.2 4.12 0 1.96-1.12 4.16-4.2 4.16zm13.55 15.16h19.12v-4.52h-14.32v-7.68h8.28v-4.52h-8.28v-6.76h13.44v-4.52h-18.24v28zm24.53 0h4.8v-10.96h5.84l5.4 10.96h5.4l-5.6-11.48c3.96-1.2 5.76-4.8 5.76-8 0-4.4-2.24-8.52-9.2-8.52h-12.4v28zm4.8-15.52v-7.92h7.68c3.28 0 4.16 2.08 4.16 3.96 0 2.04-1.04 3.96-4.16 3.96h-7.68zm22.58 15.52h18.4v-4.6h-13.6v-23.4h-4.8v28z" fill="url(#paint2_linear)"/>
  <path d="m131.6 165c-0.172-0.024-0.301-0.074-0.346-0.131-0.089-0.119-0.048-0.449 0.09-0.716 0.115-0.223 0.131-0.378 0.043-0.432-0.033-0.021-0.346-0.053-0.698-0.074-0.716-0.041-1.071-0.135-1.342-0.356-0.403-0.328-0.469-0.828-0.187-1.39 0.223-0.44 0.631-0.956 1.135-1.433 0.791-0.75 1.444-1.169 2.292-1.468 0.684-0.243 0.8-0.346 0.932-0.831 0.031-0.113 0.147-0.338 0.259-0.5 0.356-0.514 0.536-1.329 0.681-3.095 0.159-1.922 0.189-3.172 0.215-8.878l0.026-5.828-0.303-0.598c-0.554-1.093-1.06-2.193-1.195-2.599-0.226-0.684-0.341-1.398-0.491-3.051-0.273-3.035-0.571-3.981-2.973-9.401-2.024-4.564-3.322-7.719-4.12-10-0.736-2.113-1.346-3.353-1.906-3.886-0.204-0.192-0.496-0.34-0.677-0.34-0.294 0-0.743 0.384-1.115 0.951-0.363 0.554-1.136 2.169-1.641 3.431-0.907 2.265-1.631 4.549-2.305 7.272-0.874 3.533-1.354 4.954-2.426 7.175-0.786 1.63-0.903 2.013-1.075 3.546-0.203 1.805-0.594 3.26-1.198 4.444-0.198 0.409-0.46 0.784-0.778 1.111-0.432 0.461-0.484 0.555-0.66 1.201-0.089 0.33-0.454 1.579-0.811 2.776-0.887 2.937-1.696 5.897-2.426 8.876-0.435 1.768-0.776 3.005-1.101 3.995-0.35 1.062-0.372 1.302-0.223 2.281 0.125 0.819 0.11 1.32-0.056 1.911-0.305 1.087-1.01 1.741-2.196 2.041-0.911 0.229-1.521 0.269-4.055 0.272-2.491 2e-3 -2.813-0.019-3.45-0.226-0.3705-0.12-0.6896-0.374-0.7937-0.632-0.0593-0.188-0.0976-0.381-0.1143-0.576-0.0435-0.471-0.0915-0.523-0.4003-0.445-0.1095 0.035-0.2268 0.039-0.3382 0.01-0.1114-0.028-0.2123-0.087-0.2908-0.17-0.5044-0.463-0.5318-1.859-0.0458-2.323 0.3774-0.361 0.9778-0.485 2.698-0.561 1.773-0.078 2.387-0.208 3.26-0.689 0.526-0.289 0.926-0.64 1.074-0.94 0.06-0.124 0.164-0.497 0.232-0.827 0.067-0.333 0.151-0.663 0.253-0.987 0.185-0.538 0.897-1.974 1.72-3.465 1.245-2.258 1.663-3.247 2.152-5.097 0.172-0.644 0.617-2.226 0.989-3.513 0.374-1.286 0.728-2.569 0.786-2.85 0.153-0.732 0.174-1.442 0.094-3.102-0.085-1.748-0.085-3.025-1e-3 -3.535 0.034-0.207 0.174-0.769 0.311-1.251 0.368-1.286 0.423-1.673 0.423-3 2e-3 -1.521-0.124-2.73-0.678-6.552-0.569-3.917-0.707-5.323-0.744-7.576-0.014-0.935-0.042-1.716-0.061-1.737s-1.231-0.452-2.693-0.958c-1.124-0.388-2.247-0.78-3.368-1.178-3.385-1.231-4.994-2.106-6.673-3.637-3.854-3.512-6.322-8.567-8.621-17.66-1.128-4.455-1.643-7.301-1.905-10.49-0.0503-0.6119-0.1132-1.964-0.2059-4.42-0.1132-3.021-0.2824-3.605-1.773-6.107-0.6268-1.052-1.251-2.228-1.473-2.776-0.119-0.3259-0.2131-0.6603-0.2813-1-0.0432-0.2398-0.0993-0.4772-0.1681-0.7112-0.0549-0.1241-1.29-0.7359-2.308-1.143-0.7617-0.3048-2.275-1.043-2.71-1.323-0.2434-0.1615-0.48-0.3329-0.7091-0.5136-0.1451-0.1158-0.2911-0.2306-0.438-0.3443-0.0343-0.0271-0.3042 0.0678-0.6839 0.2371-0.3443 0.1546-0.82 0.3386-1.057 0.4109-0.4003 0.1219-0.502 0.132-1.394 0.1343-1.083 0.0022-1.49-0.0723-2.179-0.3973-0.7628-0.3601-0.9927-0.6435-1.092-1.346-0.0938-0.6682 0.0057-1.038 0.4335-1.611 0.1075-0.1444 0.0572-0.237-0.2368-0.4458-0.4048-0.2879-0.4723-0.4854-0.4723-1.4 0-0.9742 0.0217-1.022 0.8486-1.866 0.7377-0.7529 1.334-1.524 1.766-2.285 0.8029-1.41 1.082-1.782 1.476-1.968 0.4506-0.21 1.606-0.2901 5.153-0.3578 3.724-0.0712 4.906-0.1558 6.006-0.429 0.9058-0.2257 1.443-0.5271 2.478-1.393 0.6896-0.5757 0.7719-0.5983 2.158-0.6017 1.232-0.0022 1.969 0.061 3.04 0.2563 0.8132 0.149 1.297 0.1614 1.647 0.0429 0.1395-0.0474 0.5375-0.2156 0.8863-0.3748 0.3488-0.158 0.748-0.324 0.8875-0.368 0.9893-0.3093 1.87-0.1987 2.621 0.3308 0.6873 0.4853 1.153 1.124 2.065 2.837 0.3145 0.5915 0.8463 1.559 1.183 2.15 1.281 2.259 1.687 3.476 1.741 5.226 0.04 1.35-0.072 1.903-0.789 3.859-0.387 1.058-0.387 1.052-0.387 4.117 0 1.756 0.023 3.02 0.065 3.551 0.228 2.878 0.495 5.226 0.797 6.976 0.314 1.823 0.526 2.421 1.038 2.929 0.642 0.6389 1.555 0.8466 3.724 0.8466 1.833 0 2.664-0.1309 3.523-0.5553 1.415-0.6988 3.184-2.436 4.74-4.654 0.659-0.9391 1.246-1.885 2.185-3.532 2.741-4.796 4.207-6.622 7.145-8.9 1.771-1.374 2.656-2.68 3.383-4.987 0.74-2.348 1.854-4.031 3.633-5.487 2.141-1.754 3.986-2.354 7.262-2.359 1.332-0.0022 1.91 0.0542 2.774 0.2732 1.815 0.4571 3.043 1.376 3.781 2.832 0.283 0.5565 0.433 1.149 0.975 3.84 0.548 2.718 0.848 3.766 1.41 4.901 0.391 0.7913 0.818 1.373 1.502 2.048 0.829 0.8161 1.402 1.097 1.907 0.9323 0.417-0.1354 0.632-0.4842 2.178-3.53 1.422-2.8 1.799-3.508 2.377-4.459 0.999-1.644 1.833-2.389 2.968-2.652 0.327-0.0756 0.601-0.0903 1.585-0.0869 1.375 0.0056 1.533 0.0339 2.56 0.4684 2.697 1.142 4.792 2.836 5.444 4.399 0.347 0.8296 1.685 4.967 2.481 7.669 0.453 1.541 0.636 2.043 1.021 2.799 0.483 0.9527 0.737 1.273 1.976 2.488 0.812 0.798 1.278 1.3 1.599 1.726 1.17 1.551 2.19 3.395 3.408 6.163 1.849 4.201 2.491 6.36 2.694 9.059 0.087 1.156 0.035 3.763-0.129 6.482-0.164 2.705-0.157 3.838 0.025 4.402 0.134 0.4154 0.535 1.22 0.835 1.674 0.4 0.6073 0.635 0.7969 2.483 1.998 0.658 0.427 1.258 0.862 1.571 1.14 1.312 1.16 2.177 2.622 2.289 3.868 0.038 0.411-0.042 0.683-0.213 0.726-0.324 0.079-2.207-0.801-4.527-2.116-1.215-0.69-1.935-1.149-2.837-1.81-0.915-0.669-1.21-0.851-1.448-0.889-0.142-0.024-0.181-9e-3 -0.233 0.089-0.309 0.567-1.548 5.565-2.554 10.29-0.901 4.236-1.09 5.705-1.091 8.466 0 2.172 0.14 3.697 0.486 5.287 0.303 1.392 0.339 1.791 0.308 3.406-0.03 1.481-0.087 2.303-0.463 6.576-0.362 4.115-0.43 5.824-0.336 8.427 0.107 2.959 0.528 9.307 0.792 11.95 0.171 1.711 0.295 2.314 0.679 3.293 0.376 0.961 0.513 1.464 0.545 2.007 0.048 0.809-0.138 1.301-0.695 1.852-0.692 0.681-1.672 0.873-3.876 0.755-2.991-0.162-3.466-0.296-3.316-0.939 0.076-0.32 0.059-0.508-0.049-0.565-0.054-0.03-0.289-0.053-0.52-0.053-0.546 0-0.997-0.074-1.156-0.191-0.101-0.089-0.187-0.195-0.254-0.312-0.103-0.182-0.125-0.288-0.125-0.596 0-0.333 0.019-0.412 0.177-0.7 0.211-0.39 0.766-0.956 1.368-1.401 1.829-1.352 3.115-2.867 3.316-3.908 0.32-1.657 0.27-6.44-0.123-11.8-0.216-2.931-0.298-4.325-0.355-6.151-0.062-1.887-0.099-2.099-0.583-3.2-0.255-0.582-0.551-1.603-0.759-2.622-0.251-1.224-0.298-1.613-0.298-2.429 0-0.839 0.103-1.374 0.397-2.092 0.252-0.613 0.295-0.939 0.228-1.677-0.173-1.884-0.538-3.628-1.091-5.232-0.424-1.225-0.793-2.058-1.683-3.793-1.226-2.392-1.681-3.437-1.855-4.275-0.299-1.433-0.347-4.318-0.095-5.685 0.048-0.261 0.087-0.7 0.086-0.976-1e-3 -0.44-0.019-0.537-0.147-0.815-0.183-0.398-0.541-0.728-0.904-0.835-0.48-0.14-0.75-0.073-1.06 0.266-0.382 0.418-0.667 1.107-1.281 3.115-0.819 2.629-1.681 5.245-2.586 7.846-2.264 6.552-2.802 8.638-3.418 13.28-0.485 3.651-0.859 5.071-2.004 7.601-0.363 0.804-1.713 3.443-2.584 5.052-1.78 3.29-2.693 5.655-3.521 9.126-0.516 2.165-0.846 3.188-1.332 4.126-0.228 0.44-0.324 0.564-0.805 1.03-0.606 0.59-0.62 0.621-0.436 1.026 0.087 0.192 0.114 0.37 0.133 0.825 0.028 0.772-0.051 1.057-0.374 1.338-0.301 0.26-1.067 0.632-1.51 0.734-0.432 0.097-1.633 0.169-2.851 0.172-0.946 1e-3 -1.936 0.074-2.013 0.149-0.069 0.067 0 0.21 0.433 0.887 0.523 0.817 0.648 1.081 0.649 1.37 0 0.305-0.213 0.717-0.62 1.194-0.885 1.037-1.91 1.476-3.965 1.699-1.188 0.13-3.48 0.187-4.076 0.102v-1e-3h-1e-3zm7.849-9.777c0.513-0.266 1.1-0.75 2.058-1.695 0.976-0.964 1.353-1.411 2.007-2.379 1.269-1.877 2.208-4.393 3.561-9.527 1.139-4.329 1.699-7.047 1.99-9.651 0.125-1.129 0.122-4.86-6e-3 -6.477-0.113-1.436-0.162-4.445-0.088-5.35 0.031-0.373 0.09-1.025 0.133-1.451 0.232-2.333 0.177-6.306-0.098-7.094-0.049-0.143-0.093-0.187-0.202-0.199-0.22-0.027-0.768 0.163-1.738 0.596-1.486 0.666-2.528 0.971-3.738 1.099-1.224 0.129-2.813-0.11-3.843-0.58-0.215-0.098-0.409-0.167-0.432-0.152-0.081 0.05-0.113 0.808-0.16 3.772-0.057 3.769-0.113 4.58-0.507 7.419-0.335 2.415-0.371 2.842-0.374 4.315-3e-3 1.468 0.039 1.874 0.326 3.151 0.284 1.258 0.357 1.934 0.356 3.3 0 1.558-0.149 2.8-0.539 4.477-0.964 4.157-1.078 7.782-0.377 11.98 0.278 1.662 0.916 4.365 1.076 4.556 0.086 0.102 0.233 0.074 0.595-0.114z" fill="url(#paint3_linear)"/>
  <path d="m155.6 17v44.23c0 8.91 7.259 15.93 16.17 15.93l44.23-0.0112v-2l-60.4-58.15z" fill="#282828" opacity=".25"/>
  <path d="m155.6 15v44.23c0 8.91 7.259 15.93 16.17 15.93l44.23-0.0112-60.4-60.15z" fill="url(#paint4_linear)"/>
  <defs>
    <linearGradient id="paint0_linear" x1="39" x2="39" y1="186.5" y2="240.2" gradientUnits="userSpaceOnUse">
      <stop stop-color="#b16286" offset="1e-7"/>
      <stop stop-color="#8f3f71" offset="1"/>
    </linearGradient>
    <linearGradient id="paint1_linear" x1="39" x2="39" y1="15" y2="240.2" gradientUnits="userSpaceOnUse">
      <stop stop-color="#b16286" offset="1e-7"/>
      <stop stop-color="#8f3f71" offset="1"/>
    </linearGradient>
    <linearGradient id="paint2_linear" x1="39" x2="39" y1="187" y2="240" gradientUnits="userSpaceOnUse">
      <stop stop-color="#b16286" offset="1e-7"/>
      <stop stop-color="#8f3f71" offset="1"/>
    </linearGradient>
    <linearGradient id="paint3_linear" x1="68" x2="68" y1="45" y2="165" gradientUnits="userSpaceOnUse">
      <stop stop-color="#b16286" offset="1e-7"/>
      <stop stop-color="#8f3f71" offset="1"/>
    </linearGradient>
    <linearGradient id="paint4_linear" x1="155.6" x2="155.6" y1="15" y2="75.16" gradientUnits="userSpaceOnUse">
      <stop stop-color="#b16286" offset="1e-7"/>
      <stop stop-color="#8f3f71" offset="1"/>
    </linearGradient>
  </defs>
</svg>

<svg width="256" height="256" viewBox="0 0 256 256" fill="none" xmlns="http://www.w3.org/2000/svg">
<g opacity="0.4" filter="url(#filter0_f)">
<path d="M55.0839 15.5636H155.608L216.009 75.7129L216.011 224.609C216.011 233.52 208.749 240.737 199.838 240.737H55.0838C46.1734 240.737 39 233.564 39 224.654V31.6474C39 22.737 46.1734 15.5636 55.0838 15.5636H55.0839Z" fill="#282828"/>
</g>
<path d="M55.0839 15H155.608L216.009 75.1493L216.011 224.045C216.011 232.956 208.749 240.174 199.838 240.174H55.0838C46.1734 240.174 39 233 39 224.09V31.0838C39 22.1734 46.1734 15 55.0838 15H55.0839Z" fill="#ebdbb2"/>
<path opacity="0.2" d="M199.838 240.174C208.749 240.174 216.011 232.956 216.011 224.046L216.01 186.5H39V224.09C39 233 46.1734 240.174 55.0838 240.174H199.838Z" fill="url(#paint0_linear)"/>
<path fill-rule="evenodd" clip-rule="evenodd" d="M155.609 22.9787H55.0839C50.58 22.9787 46.9787 26.5799 46.9787 31.0838V224.09C46.9787 228.594 50.5799 232.195 55.0838 232.195H199.838C204.371 232.195 208.032 228.521 208.032 224.046V75.1493L155.609 22.9787ZM155.608 15H55.0839C46.1735 15 39 22.1734 39 31.0838V224.09C39 233 46.1734 240.174 55.0838 240.174H199.838C208.749 240.174 216.011 232.956 216.011 224.045L216.009 75.1493L155.608 15Z" fill="url(#paint1_linear)"/>
<path d="M80.9195 226H85.7195V215.4H92.5595C99.2795 215.4 101.96 210.68 101.96 206.68C101.96 202.4 99.5195 198 92.5595 198H80.9195V226ZM92.7995 210.84H85.7195V202.56H92.7995C96.0795 202.56 96.9995 204.92 96.9995 206.68C96.9995 208.64 95.8795 210.84 92.7995 210.84ZM106.349 226H125.469V221.48H111.149V213.8H119.429V209.28H111.149V202.52H124.589V198H106.349V226ZM130.88 226H135.68V215.04H141.52L146.92 226H152.32L146.72 214.52C150.68 213.32 152.48 209.72 152.48 206.52C152.48 202.12 150.24 198 143.28 198H130.88V226ZM135.68 210.48V202.56H143.36C146.64 202.56 147.52 204.64 147.52 206.52C147.52 208.56 146.48 210.48 143.36 210.48H135.68ZM158.263 226H176.663V221.4H163.063V198H158.263V226Z" fill="url(#paint2_linear)"/>
<path d="M131.565 164.959C131.393 164.935 131.264 164.885 131.219 164.828C131.13 164.709 131.171 164.379 131.309 164.112C131.424 163.889 131.44 163.734 131.352 163.68C131.319 163.659 131.006 163.627 130.654 163.606C129.938 163.565 129.583 163.471 129.312 163.25C128.909 162.922 128.843 162.422 129.125 161.86C129.348 161.42 129.756 160.904 130.26 160.427C131.051 159.677 131.704 159.258 132.552 158.959C133.236 158.716 133.352 158.613 133.484 158.128C133.515 158.015 133.631 157.79 133.743 157.628C134.099 157.114 134.279 156.299 134.424 154.533C134.583 152.611 134.613 151.361 134.639 145.655L134.665 139.827L134.362 139.229C133.808 138.136 133.302 137.036 133.167 136.63C132.941 135.946 132.826 135.232 132.676 133.579C132.403 130.544 132.105 129.598 129.703 124.178C127.679 119.614 126.381 116.459 125.583 114.176C124.847 112.063 124.237 110.823 123.677 110.29C123.473 110.098 123.181 109.95 123 109.95C122.706 109.95 122.257 110.334 121.885 110.901C121.522 111.455 120.749 113.07 120.244 114.332C119.337 116.597 118.613 118.881 117.939 121.604C117.065 125.137 116.585 126.558 115.513 128.779C114.727 130.409 114.61 130.792 114.438 132.325C114.235 134.13 113.844 135.585 113.24 136.769C113.042 137.178 112.78 137.553 112.462 137.88C112.03 138.341 111.978 138.435 111.802 139.081C111.713 139.411 111.348 140.66 110.991 141.857C110.104 144.794 109.295 147.754 108.565 150.733C108.13 152.501 107.789 153.738 107.464 154.728C107.114 155.79 107.092 156.03 107.241 157.009C107.366 157.828 107.351 158.329 107.185 158.92C106.88 160.007 106.175 160.661 104.989 160.961C104.078 161.19 103.468 161.23 100.934 161.233C98.4432 161.235 98.1206 161.214 97.4836 161.007C97.1131 160.887 96.794 160.633 96.6899 160.375C96.6306 160.187 96.5923 159.994 96.5756 159.799C96.5321 159.328 96.4841 159.276 96.1753 159.354C96.0658 159.389 95.9485 159.393 95.8371 159.364C95.7257 159.336 95.6248 159.277 95.5463 159.194C95.0419 158.731 95.0145 157.335 95.5005 156.871C95.8779 156.51 96.4783 156.386 98.1984 156.31C99.9711 156.232 100.585 156.102 101.458 155.621C101.984 155.332 102.384 154.981 102.532 154.681C102.592 154.557 102.696 154.184 102.764 153.854C102.831 153.521 102.915 153.191 103.017 152.867C103.202 152.329 103.914 150.893 104.737 149.402C105.982 147.144 106.4 146.155 106.889 144.305C107.061 143.661 107.506 142.079 107.878 140.792C108.252 139.506 108.606 138.223 108.664 137.942C108.817 137.21 108.838 136.5 108.758 134.84C108.673 133.092 108.673 131.815 108.757 131.305C108.791 131.098 108.931 130.536 109.068 130.054C109.436 128.768 109.491 128.381 109.491 127.054C109.493 125.533 109.367 124.324 108.813 120.502C108.244 116.585 108.106 115.179 108.069 112.926C108.055 111.991 108.027 111.21 108.008 111.189C107.989 111.168 106.777 110.737 105.315 110.231C104.191 109.843 103.068 109.451 101.947 109.053C98.5621 107.822 96.953 106.947 95.2741 105.416C91.4199 101.904 88.9519 96.8494 86.6531 87.7592C85.5255 83.3039 85.0097 80.4582 84.7478 77.2694C84.6975 76.6575 84.6346 75.3052 84.5419 72.849C84.4287 69.8283 84.2595 69.2436 82.7693 66.7422C82.1425 65.6902 81.5181 64.514 81.2962 63.9665C81.1772 63.6406 81.0831 63.3062 81.0149 62.9664C80.9717 62.7266 80.9156 62.4892 80.8468 62.2552C80.7919 62.1311 79.5567 61.5193 78.5389 61.1118C77.7772 60.807 76.2641 60.0688 75.8284 59.7888C75.585 59.6273 75.3484 59.4559 75.1193 59.2752C74.9742 59.1594 74.8282 59.0446 74.6813 58.9309C74.647 58.9038 74.3771 58.9987 73.9974 59.168C73.6531 59.3226 73.1774 59.5066 72.9406 59.5789C72.5403 59.7008 72.4386 59.7109 71.5465 59.7132C70.4634 59.7154 70.0563 59.6409 69.3678 59.3159C68.605 58.9558 68.3751 58.6724 68.2756 57.9703C68.1818 57.3021 68.2813 56.9318 68.7091 56.3595C68.8166 56.2151 68.7663 56.1225 68.4723 55.9137C68.0675 55.6258 68 55.4283 68 54.514C68 53.5398 68.0217 53.4924 68.8486 52.6481C69.5863 51.8952 70.1821 51.1242 70.6144 50.3634C71.4173 48.9535 71.6963 48.581 72.0909 48.3959C72.5415 48.1859 73.6966 48.1058 77.2442 48.0381C80.968 47.9669 82.1505 47.8823 83.2507 47.6091C84.1565 47.3834 84.694 47.082 85.7291 46.2162C86.4187 45.6405 86.501 45.6179 87.8872 45.6145C89.1189 45.6123 89.8565 45.6755 90.927 45.8708C91.7402 46.0198 92.2239 46.0322 92.5739 45.9137C92.7134 45.8663 93.1114 45.6981 93.4602 45.5389C93.809 45.3809 94.2082 45.2149 94.3477 45.1709C95.337 44.8616 96.2176 44.9722 96.969 45.5017C97.6563 45.987 98.1218 46.6259 99.0344 48.3383C99.3489 48.9298 99.8807 49.8972 100.217 50.4887C101.498 52.7474 101.904 53.9642 101.958 55.715C101.998 57.065 101.886 57.6181 101.169 59.5743C100.782 60.632 100.782 60.6264 100.782 63.6911C100.782 65.4475 100.805 66.7106 100.847 67.2423C101.075 70.1207 101.342 72.4686 101.644 74.2182C101.958 76.0412 102.17 76.6395 102.682 77.1474C103.324 77.7863 104.237 77.994 106.406 77.994C108.239 77.994 109.07 77.8631 109.929 77.4387C111.344 76.7399 113.113 75.0027 114.669 72.7846C115.328 71.8455 115.915 70.8996 116.854 69.2526C119.595 64.4564 121.061 62.6311 123.999 60.3521C125.77 58.9783 126.655 57.6723 127.382 55.3651C128.122 53.0172 129.236 51.3341 131.015 49.878C133.156 48.1238 135.001 47.5245 138.277 47.5188C139.609 47.5166 140.187 47.573 141.051 47.792C142.866 48.2491 144.094 49.168 144.832 50.6241C145.115 51.1806 145.265 51.7732 145.807 54.4643C146.355 57.1824 146.655 58.23 147.217 59.3655C147.608 60.1568 148.035 60.7381 148.719 61.4132C149.548 62.2293 150.121 62.5103 150.626 62.3455C151.043 62.2101 151.258 61.8613 152.804 58.8158C154.226 56.0153 154.603 55.3075 155.181 54.3571C156.18 52.7135 157.014 51.9685 158.149 51.7055C158.476 51.6299 158.75 51.6152 159.734 51.6186C161.109 51.6242 161.267 51.6525 162.294 52.087C164.991 53.2294 167.086 54.9226 167.738 56.486C168.085 57.3156 169.423 61.4527 170.219 64.155C170.672 65.6958 170.855 66.1981 171.24 66.9544C171.723 67.9071 171.977 68.2277 173.216 69.4423C174.028 70.2403 174.494 70.7427 174.815 71.1682C175.985 72.7192 177.005 74.5636 178.223 77.3314C180.072 81.5328 180.714 83.6911 180.917 86.39C181.004 87.5459 180.952 90.1534 180.788 92.8716C180.624 95.5762 180.631 96.7095 180.813 97.2739C180.947 97.6893 181.348 98.4941 181.648 98.9479C182.048 99.5552 182.283 99.7448 184.131 100.946C184.789 101.373 185.389 101.808 185.702 102.086C187.014 103.246 187.879 104.708 187.991 105.954C188.029 106.365 187.949 106.637 187.778 106.68C187.454 106.759 185.571 105.879 183.251 104.564C182.036 103.874 181.316 103.415 180.414 102.754C179.499 102.085 179.204 101.903 178.966 101.865C178.824 101.841 178.785 101.856 178.733 101.954C178.424 102.521 177.185 107.519 176.179 112.245C175.278 116.481 175.089 117.95 175.088 120.711C175.088 122.883 175.228 124.408 175.574 125.998C175.877 127.39 175.913 127.789 175.882 129.404C175.852 130.885 175.795 131.707 175.419 135.98C175.057 140.095 174.989 141.804 175.083 144.407C175.19 147.366 175.611 153.714 175.875 156.36C176.046 158.071 176.17 158.674 176.554 159.653C176.93 160.614 177.067 161.117 177.099 161.66C177.147 162.469 176.961 162.961 176.404 163.512C175.712 164.193 174.732 164.385 172.528 164.267C169.537 164.105 169.062 163.971 169.212 163.328C169.288 163.008 169.271 162.82 169.163 162.763C169.109 162.733 168.874 162.71 168.643 162.71C168.097 162.71 167.646 162.636 167.487 162.519C167.386 162.43 167.3 162.324 167.233 162.207C167.13 162.025 167.108 161.919 167.108 161.611C167.108 161.278 167.127 161.199 167.285 160.911C167.496 160.521 168.051 159.955 168.653 159.51C170.482 158.158 171.768 156.643 171.969 155.602C172.289 153.945 172.239 149.162 171.846 143.806C171.63 140.875 171.548 139.481 171.491 137.655C171.429 135.768 171.392 135.556 170.908 134.455C170.653 133.873 170.357 132.852 170.149 131.833C169.898 130.609 169.851 130.22 169.851 129.404C169.851 128.565 169.954 128.03 170.248 127.312C170.5 126.699 170.543 126.373 170.476 125.635C170.303 123.751 169.938 122.007 169.385 120.403C168.961 119.178 168.592 118.345 167.702 116.61C166.476 114.218 166.021 113.173 165.847 112.335C165.548 110.902 165.5 108.017 165.752 106.65C165.8 106.389 165.839 105.95 165.838 105.674C165.837 105.234 165.819 105.137 165.691 104.859C165.508 104.461 165.15 104.131 164.787 104.024C164.307 103.884 164.037 103.951 163.727 104.29C163.345 104.708 163.06 105.397 162.446 107.405C161.627 110.034 160.765 112.65 159.86 115.251C157.596 121.803 157.058 123.889 156.442 128.529C155.957 132.18 155.583 133.6 154.438 136.13C154.075 136.934 152.725 139.573 151.854 141.182C150.074 144.472 149.161 146.837 148.333 150.308C147.817 152.473 147.487 153.496 147.001 154.434C146.773 154.874 146.677 154.998 146.196 155.464C145.59 156.054 145.576 156.085 145.76 156.49C145.847 156.682 145.874 156.86 145.893 157.315C145.921 158.087 145.842 158.372 145.519 158.653C145.218 158.913 144.452 159.285 144.009 159.387C143.577 159.484 142.376 159.556 141.158 159.559C140.212 159.56 139.222 159.633 139.145 159.708C139.076 159.775 139.145 159.918 139.578 160.595C140.101 161.412 140.226 161.676 140.227 161.965C140.227 162.27 140.014 162.682 139.607 163.159C138.722 164.196 137.697 164.635 135.642 164.858C134.454 164.988 132.162 165.045 131.566 164.96V164.959H131.565ZM139.414 155.182C139.927 154.916 140.514 154.432 141.472 153.487C142.448 152.523 142.825 152.076 143.479 151.108C144.748 149.231 145.687 146.715 147.04 141.581C148.179 137.252 148.739 134.534 149.03 131.93C149.155 130.801 149.152 127.07 149.024 125.453C148.911 124.017 148.862 121.008 148.936 120.103C148.967 119.73 149.026 119.078 149.069 118.652C149.301 116.319 149.246 112.346 148.971 111.558C148.922 111.415 148.878 111.371 148.769 111.359C148.549 111.332 148.001 111.522 147.031 111.955C145.545 112.621 144.503 112.926 143.293 113.054C142.069 113.183 140.48 112.944 139.45 112.474C139.235 112.376 139.041 112.307 139.018 112.322C138.937 112.372 138.905 113.13 138.858 116.094C138.801 119.863 138.745 120.674 138.351 123.513C138.016 125.928 137.98 126.355 137.977 127.828C137.974 129.296 138.016 129.702 138.303 130.979C138.587 132.237 138.66 132.913 138.659 134.279C138.659 135.837 138.51 137.079 138.12 138.756C137.156 142.913 137.042 146.538 137.743 150.74C138.021 152.402 138.659 155.105 138.819 155.296C138.905 155.398 139.052 155.37 139.414 155.182V155.182Z" fill="url(#paint3_linear)"/>
<path opacity="0.25" d="M155.608 17V61.2306C155.608 70.141 162.867 77.1605 171.777 77.1605L216.009 77.1493V75.1493L155.608 17Z" fill="#282828"/>
<path d="M155.608 15V59.2306C155.608 68.141 162.867 75.1605 171.777 75.1605L216.009 75.1493L155.608 15Z" fill="url(#paint4_linear)"/>
<defs>
<filter id="filter0_f" x="23.8778" y="0.441412" width="207.255" height="255.418" filterUnits="userSpaceOnUse" color-interpolation-filters="sRGB">
<feFlood flood-opacity="0" result="BackgroundImageFix"/>
<feBlend mode="normal" in="SourceGraphic" in2="BackgroundImageFix" result="shape"/>
<feGaussianBlur stdDeviation="7.5611" result="effect1_foregroundBlur"/>
</filter>
<linearGradient id="paint0_linear" x1="39" y1="186.5" x2="39" y2="240.174" gradientUnits="userSpaceOnUse">
<stop offset="1e-07" stop-color="#b16286"/>
<stop offset="1" stop-color="#8f3f71"/>
</linearGradient>
<linearGradient id="paint1_linear" x1="39" y1="15" x2="39" y2="240.174" gradientUnits="userSpaceOnUse">
<stop offset="1e-07" stop-color="#b16286"/>
<stop offset="1" stop-color="#8f3f71"/>
</linearGradient>
<linearGradient id="paint2_linear" x1="39" y1="187" x2="39" y2="240" gradientUnits="userSpaceOnUse">
<stop offset="1e-07" stop-color="#b16286"/>
<stop offset="1" stop-color="#8f3f71"/>
</linearGradient>
<linearGradient id="paint3_linear" x1="68" y1="45" x2="68" y2="165" gradientUnits="userSpaceOnUse">
<stop offset="1e-07" stop-color="#b16286"/>
<stop offset="1" stop-color="#8f3f71"/>
</linearGradient>
<linearGradient id="paint4_linear" x1="155.608" y1="15" x2="155.608" y2="75.1605" gradientUnits="userSpaceOnUse">
<stop offset="1e-07" stop-color="#b16286"/>
<stop offset="1" stop-color="#8f3f71"/>
</linearGradient>
</defs>
</svg>
